Catalina-light/actions/22/irc-channel-active.svg

<svg xmlns="http://www.w3.org/2000/svg" viewBox="0 0 22 22">
  <defs id="defs3051">
    <style type="text/css" id="current-color-scheme">
      .ColorScheme-Text {
        color:#4d4d4d;
      }
      </style>
  </defs>
        <path
           style="fill:currentColor;fill-opacity:1;stroke:none" 
           class="ColorScheme-Text"
           d="M 7.578125 3 C 6.7380883 3 6.0546875 3.6837786 6.0546875 4.5234375 L 6.0546875 6.0507812 L 4.5253906 6.0507812 C 3.6856688 6.0507812 3.0019531 6.7341819 3.0019531 7.5742188 C 3.0019531 8.4138777 3.6856688 9.0976562 4.5253906 9.0976562 L 6.0546875 9.0976562 L 6.0546875 12.632812 L 4.5253906 12.632812 C 3.6856688 12.632812 3.0019531 13.316717 3.0019531 14.15625 C 3.0019531 14.995783 3.6856688 15.679688 4.5253906 15.679688 L 6.0546875 15.679688 L 6.0546875 17.207031 C 6.0546875 18.047194 6.7380883 18.730469 7.578125 18.730469 C 8.4178469 18.730469 9.0996094 18.047194 9.0996094 17.207031 L 9.0996094 15.679688 L 12.634766 15.679688 L 12.634766 17.207031 C 12.634766 18.047194 13.31867 18.730469 14.158203 18.730469 C 14.998177 18.730469 15.681641 18.047194 15.681641 17.207031 L 15.681641 15.679688 L 17.210938 15.679688 C 18.050785 15.679688 18.732422 14.995783 18.732422 14.15625 C 18.732422 13.316717 18.050722 12.632813 17.210938 12.632812 L 15.681641 12.632812 L 15.681641 9.0976562 L 17.210938 9.0976562 C 18.050408 9.0976562 18.734375 8.4138777 18.734375 7.5742188 C 18.734375 6.734119 18.05047 6.0507812 17.210938 6.0507812 L 15.681641 6.0507812 L 15.681641 4.5234375 C 15.681641 3.6837786 14.997862 3 14.158203 3 C 13.31804 3 12.636719 3.6837786 12.636719 4.5234375 L 12.636719 6.0507812 L 9.0996094 6.0507812 L 9.0996094 4.5234375 C 9.0996094 3.6837786 8.4178469 3 7.578125 3 z M 8.4238281 8.4199219 L 13.3125 8.4199219 L 13.3125 13.310547 L 8.4238281 13.310547 L 8.4238281 8.4199219 z "
            />
        <path
           style="opacity:1;fill:#43be80"
           d="M 15.083984 11.171875 C 12.915585 11.171875 11.169922 12.917538 11.169922 15.085938 C 11.169922 17.254337 12.915585 19 15.083984 19 C 17.252384 19 18.998047 17.254337 18.998047 15.085938 C 18.998047 12.917538 17.252384 11.171875 15.083984 11.171875 z "
            />
</svg>

<svg viewBox="0 0 22 22" xmlns="http://www.w3.org/2000/svg">
<defs>
<style id="current-color-scheme" type="text/css">.ColorScheme-Text {
        color:#4d4d4d;
      }</style>
</defs>
<path class="ColorScheme-Text" d="m7.5781 3c-0.84004 0-1.5234 0.68378-1.5234 1.5234v1.5273h-1.5293c-0.83972 0-1.5234 0.6834-1.5234 1.5234 0 0.83966 0.68372 1.5234 1.5234 1.5234h1.5293v3.5352h-1.5293c-0.83972 0-1.5234 0.6839-1.5234 1.5234s0.68372 1.5234 1.5234 1.5234h1.5293v1.5273c0 0.84016 0.6834 1.5234 1.5234 1.5234 0.83972 0 1.5215-0.68328 1.5215-1.5234v-1.5273h3.5352v1.5273c0 0.84016 0.6839 1.5234 1.5234 1.5234 0.83997 0 1.5234-0.68328 1.5234-1.5234v-1.5273h1.5293c0.83985 0 1.5215-0.6839 1.5215-1.5234s-0.6817-1.5234-1.5215-1.5234h-1.5293v-3.5352h1.5293c0.83947 0 1.5234-0.68378 1.5234-1.5234 0-0.8401-0.6839-1.5234-1.5234-1.5234h-1.5293v-1.5273c0-0.83966-0.68378-1.5234-1.5234-1.5234-0.84016 0-1.5215 0.68378-1.5215 1.5234v1.5273h-3.5371v-1.5273c0-0.83966-0.68176-1.5234-1.5215-1.5234zm0.8457 5.4199h4.8887v4.8906h-4.8887v-4.8906z" fill="currentColor"/>
<path d="m15.084 11.172c-2.1684 0-3.9141 1.7457-3.9141 3.9141s1.7457 3.9141 3.9141 3.9141 3.9141-1.7457 3.9141-3.9141-1.7457-3.9141-3.9141-3.9141z" fill="#43be80"/>
</svg>
